X:1
T: Reinländer
O:Norge
S: Utlärd av Jonny Soling
Z: Karin Arén
M: 4/4
L: 1/8
K: D
v(A,2|: D2) u(DF D2) v(DF | ED) CE uD4 | vD2 EF (GE) CE | vD(E F)(G A)(G F)v(E |
D2) u(3(DEF D2) v(DF | ED) CE uD4 | vD2 EF (GA) Bc |1 vd2 (dc d2) v(A,2 :|2 vd2 (dc d2) v(A2 |:
A)f ed (dc) c2 | vBd cB (BA) (AG) | v(3F(AF) v(DF) u(3EGE vCE | vD2 ud2 v(A4 |
A)f ed (dc) c2 | vBd cB (BA) (AG) | v(3F(AF) v(DF) u(3EGE vCE | vD2 DC D4 :|

